X: 31996
T: Peeking Pup, The
R: waltz
M: 3/4
K: Gmajor
|:D2 G2 G2|G3F G2|A3B c2|d4c2|
B2 G2 G2|B2 G2 G2|A3B c2|A4F2|
D2 G2 G2|G3F G2|A AB c2|d4c2|
B2 G2 G2|A3B A2|G6-|G4 Bd:|
|:g2 d2 d2|g2 d2 d2|e3d c2|B2 G2 G2|
g2 d2 d2|g2 d2 d2|c3B c2|A4 F2|
D2 G2 G2|G3F G2|A3B c2|d4 c2|
B2 G2 G2|A3B A2|G2 GF GA|G4:|

